!!!!SEGMENT: Distler_Jahrkreis_40_Wach-auf-wach-auf-du-deutsches-Land.krn
!!!COM: Distler, Hugo
!!!CDT: 1908-1942
!!!OPR@@DE: Der Jahrkreis
!!!OPR@EN: The Year Cycle
!!!OTL@@DE: Wach auf, wach auf, du deutsches Land
!!!OTL@EN: Awake, awake, O German land
!!!OPS: 5
!!!ONM: 40
**kern	**text	**text	**kern	**text	**text	**kern	**text	**text
*part3	*part3	*part3	*part2	*part2	*part2	*part1	*part1	*part1
*staff3	*staff3	*staff3	*staff2	*staff2	*staff2	*staff1	*staff1	*staff1
*Ialto	*	*	*Isoprn	*	*	*Isoprn	*	*
*clefG2	*	*	*clefG2	*	*	*clefG2	*	*
*k[f# c#]	*	*	*k[f# c#]	*	*	*k[f# c#]	*	*
*MM120	*	*	*MM120	*	*	*MM120	*	*
*M4/4	*	*	*M4/4	*	*	*M4/4	*	*
*>[A,A,B]	*>[A,A,B]	*>[A,A,B]	*>[A,A,B]	*>[A,A,B]	*>[A,A,B]	*>[A,A,B]	*>[A,A,B]	*>[A,A,B]
*>norep[A,B]	*>norep[A,B]	*>norep[A,B]	*>norep[A,B]	*>norep[A,B]	*>norep[A,B]	*>norep[A,B]	*>norep[A,B]	*>norep[A,B]
*>A	*>A	*>A	*>A	*>A	*>A	*>A	*>A	*>A
=1	=1	=1	=1	=1	=1	=1	=1	=1
2d	Wach'	Be-	4r	.	.	4r	.	.
.	.	.	4d	Wach'	Be-	4d	Wach'	Be-
4c#	auf,	denk',	2d	auf,	denk',	4f#	auf,	denk',
4B	wach'	was	.	.	.	4g	wach'	was
=2	=2	=2	=2	=2	=2	=2	=2	=2
2A	auf,	Gott	4e	wach'	was	4a	auf,	Gott
.	.	.	2f#	auf,	Gott	4a	du	an
4d	du	an	.	.	.	(4.b	deut-	dich_
([4c#	deut-	dich_	4e	du	an	.	.	.
.	.	.	.	.	.	8aL	.	.
=3	=3	=3	=3	=3	=3	=3	=3	=3
4c#]	.	.	(4.d	deut-	dich_	8f#	.	.
.	.	.	.	.	.	8gJ	.	.
8BL	.	.	.	.	.	2a)	.	.
8AJ	.	.	8c#)	.	.	.	.	.
4B)	.	.	2d	sches	ge-	.	.	.
4B	sches	ge-	.	.	.	4g#	sches	ge-
!!LO:LB:g=original
=4	=4	=4	=4	=4	=4	=4	=4	=4
4A,	Land,	wandt,	2c#	Land,	wandt,	1a	Land,	wandt,
4A	du	wo-	.	.	.	.	.	.
4B	hast	zu	4r	.	.	.	.	.
4c#	ge-	er	4e	du	wo-	.	.	.
=5	=5	=5	=5	=5	=5	=5	=5	=5
2d	nug	dich	4f#	hast	zu	2r	.	.
.	.	.	4g#	ge-	er	.	.	.
4c#	ge-	er-	2a	nug	dich	4a	du	wo-
([4e	schla-	schaf-	.	.	.	[4b	hast_	zu_
=6	=6	=6	=6	=6	=6	=6	=6	=6
4e]	.	.	4g#	ge-	er-	4b]	.	.
8dL	.	.	(4f#	schla-	schaf-	4cc#	ge-	er
8c#	.	.	.	.	.	.	.	.
8B	.	.	8g#L	.	.	4dd	nug	dich
8c#	.	.	8aJ	.	.	.	.	.
8d	.	.	[4b	.	.	4dd	ge-	er-
8eJ	.	.	.	.	.	.	.	.
=7	=7	=7	=7	=7	=7	=7	=7	=7
*M6/4	*	*	*M6/4	*	*	*M6/4	*	*
2f#	.	.	8bL]	.	.	(4cc#	schla-	schaf-
.	.	.	8aJ	.	.	.	.	.
.	.	.	2a	.	.	8bL	.	.
.	.	.	.	.	.	8aJ	.	.
2e)	.	.	.	.	.	2b)	.	.
.	.	.	4g#)	.	.	.	.	.
2A	fen!	fen!	2a	fen!	fen!	2a	fen!	fen!
!!LO:LB:g=original
=8:|!	=8	=8	=8:|!	=8	=8	=8:|!	=8	=8
*>B	*>B	*>B	*>B	*>B	*>B	*>B	*>B	*>B
*M4/4	*	*	*M4/4	*	*	*M4/4	*	*
2r	.	.	2r	.	.	4r	.	.
.	.	.	.	.	.	4a	Be-	.
4r	.	.	4r	.	.	2dd	denk',	.
4d	Be-	.	4d	Be-	.	.	.	.
=9	=9	=9	=9	=9	=9	=9	=9	=9
*M6/4	*	*	*M6/4	*	*	*M6/4	*	*
4c#	denk',	.	4a	denk',	.	4a	was	.
4B	was	.	4d	was	.	(4.dd	Gott_	.
4A	Gott	.	4a	Gott	.	.	.	.
.	.	.	.	.	.	8cc#)	.	.
4d	dir	.	4g	dir	.	4b	dir	.
4d	hat	.	4.f#	hat	.	4a	hat	.
4c#	ge-	.	.	.	.	4g	ge-	.
.	.	.	8e	ge-	.	.	.	.
=10	=10	=10	=10	=10	=10	=10	=10	=10
*M4/4	*	*	*M4/4	*	*	*M4/4	*	*
4d,	sandt	.	2d	sandt	.	2f#	sandt	.
4B	und	.	.	.	.	.	.	.
2d	dir	.	4r	.	.	4r	.	.
.	.	.	4d	und	.	4f#	und	.
!!LO:LB:g=original
=11	=11	=11	=11	=11	=11	=11	=11	=11
4d	ver-	.	4d	dir	.	4a	dir	.
(4.e	traut,_	.	4c#	ver-	.	4a	ver-	.
.	.	.	(4.B	traut,_	.	4b	traut,	.
8dL	.	.	.	.	.	.	.	.
8e	.	.	.	.	.	4a	sein	.
8f#J	.	.	8c#L	.	.	.	.	.
=12	=12	=12	=12	=12	=12	=12	=12	=12
4g	.	.	8d	.	.	(8bL	hoech-	.
.	.	.	8eJ	.	.	8cc#J	.	.
4.f#	.	.	4f#)	.	.	4.dd	.	.
.	.	.	2f#	sein	.	.	.	.
8e)	.	.	.	.	.	8cc#	.	.
4d	sein	.	.	.	.	4b	.	.
=13	=13	=13	=13	=13	=13	=13	=13	=13
4e	hoech-	.	4e	hoech-	.	4cc#)	.	.
4e	stes	.	4e	stes	.	4cc#	stes	.
2f#	Pfand!	.	2d	Pfand!	.	4dd,	Pfand!	.
.	.	.	.	.	.	4dd	Drum	.
!!LO:LB:g=original
=14	=14	=14	=14	=14	=14	=14	=14	=14
*M6/4	*	*	*M6/4	*	*	*M6/4	*	*
2.r	.	.	4r	.	.	2dd	magst	.
.	.	.	2dd	Drum	.	.	.	.
.	.	.	.	.	.	4a	du	.
4r	.	.	2dd	magst	.	2b	wohl	.
2g	Drum	.	.	.	.	.	.	.
.	.	.	4a	du	.	[(4f#	auf-	.
=15	=15	=15	=15	=15	=15	=15	=15	=15
2g	magst	.	2b	wohl	.	8f#L]	.	.
.	.	.	.	.	.	8eJ	.	.
.	.	.	.	.	.	4d)	.	.
4d	du	.	4f#	auf-	.	(4.a	wa-	.
2e	wohl	.	(4.a	wa-	.	.	.	.
.	.	.	.	.	.	8gL	.	.
.	.	.	.	.	.	8a	.	.
.	.	.	8g	.	.	8bJ	.	.
4B	auf-	.	4f#	.	.	[4a	.	.
=16	=16	=16	=16	=16	=16	=16	=16	=16
*M8/4	*	*	*M8/4	*	*	*M8/4	*	*
(4.d	wa-	.	8eL	.	.	8aL]	.	.
.	.	.	8dJ	.	.	8gJ	.	.
.	.	.	2e	.	.	4a	.	.
8c#	.	.	.	.	.	.	.	.
4B	.	.	.	.	.	4b	.	.
4A	.	.	4f#)	.	.	4cc#)	.	.
*^		*	*	*	*	*	*	*	*
2d	2d	.	.	(4.d	.	chen!_	1dd	chen!	.
.	.	.	.	8eL	.	.	.	.	.
4e	4c#)	.	.	8f#	.	.	.	.	.
.	.	.	.	8gJ	.	.	.	.	.
4f#	4d	.	chen!	4a)	.	.	.	.	.
*v	*v	*	*	*	*	*	*	*	*
==	==	==	==	==	==	==	==	==
*-	*-	*-	*-	*-	*-	*-	*-	*-
!!!YOR: Bärenreiter-Ausgabe 676
!!!YOY: 1933
!!!EFL: 40/52
!!!URL-github: https://github.com/LucasHofmann/distler/blob/main/Jahrkreis/Distler_Jahrkreis_40_Wach-auf-wach-auf-du-deutsches-Land.krn
!!!URL-pdf: https://imslp.eu/files/imglnks/euimg/7/7d/IMSLP834545-PMLP518834-5-jahrkreis-EA--original-paper-600dpi.pdf#page=77 First edition, Kassel: Bärenreiter, 1933. Plate BA 676.
!!!URL-imslp: https://imslp.org/wiki/Der_Jahrkreis,_Op.5_(Distler,_Hugo)#IMSLP834545
!!!system-decoration: [(s1,s2,s3)]
!!!ENC: Lucas Hofmann
!!!END: 2024/01/02
!!!title: @{OPR@@DE}, Op. @{OPS}, Nr. @{ONM}. <i>@{OTL@@DE}</i>
